X:1
T:When The Saints Go Marching In
C:Traditional
M:4/4
L:1/4
Q:120
K:C
%% Great for practicing rests and note value relationships
z C E F | G3 z | C E F | G3 z |
C E F G | E3 C | E D | C3 z |
E E D C | C E G G | F z E z | D3 z |
E F G E | C D | C2 z2 |]
